X: 41524
T: Uncle Bernard's
R: polka
M: 2/4
K: Gmajor
GG/A/ B>c|dB d/c/B|cA c/B/A|B/c/B/A/ GD|
G>A Bc|d>e dg|f/e/d/c/ BA|G2:|
ga/g/ fe|d>e dB|c>d cA|B>c B/c/d/B/|
gg f>e|de dg|f/e/d/c/ BA|G2:|
|:G>A Bc|d>e d/c/B|c>d c/B/A|BG A>D|
G2 Bc|d2 dg|fd c/B/A|G2 G2:|
|:g2 fe|d2 d/c/B|c2 c/B/A|BG Ad|
g/f/g/a/ g/f/e|d>G dg|f/e/d/c/ B/c/A/G/|G2 G2:|

